core/assets/icons/bank_card.filled.svg

<svg width="24" height="24" viewBox="0 0 24 24" xmlns="http://www.w3.org/2000/svg"><g id="bank-card=filled"><path id="Vector" d="M22 10V20C22 20.2652 21.8946 20.5196 21.7071 20.7071C21.5196 20.8946 21.2652 21 21 21H3C2.73478 21 2.48043 20.8946 2.29289 20.7071C2.10536 20.5196 2 20.2652 2 20V10H22ZM22 8H2V4C2 3.73478 2.10536 3.48043 2.29289 3.29289C2.48043 3.10536 2.73478 3 3 3H21C21.2652 3 21.5196 3.10536 21.7071 3.29289C21.8946 3.48043 22 3.73478 22 4V8ZM15 16V18H19V16H15Z"/></g></svg>

<svg xmlns="http://www.w3.org/2000/svg" width="24" height="24" fill="none"><path fill="#191C22" d="M22 10v10a1 1 0 0 1-1 1H3a1 1 0 0 1-1-1V10h20Zm0-2H2V4a1 1 0 0 1 1-1h18a1 1 0 0 1 1 1v4Zm-7 8v2h4v-2h-4Z"/></svg>
